logos/jamstack.svg

<?xml version="1.0" encoding="UTF-8"?>
<svg width="512px" height="98px" viewBox="0 0 512 98" version="1.1" xmlns="http://www.w3.org/2000/svg" xmlns:xlink="http://www.w3.org/1999/xlink" preserveAspectRatio="xMidYMid">
    <g>
        <path d="M187.509477,31.8994847 C192.311912,31.8994847 197.665296,33.7078184 200.263617,38.0324908 L200.263617,38.0324908 L200.420987,38.0324908 L200.420987,33.3933939 L213.489865,33.3933939 L213.489865,77.0336982 L200.420987,77.0336982 L200.420987,72.3157595 L200.263617,72.3157595 C197.901507,76.7978012 192.23307,78.5276074 187.509477,78.5276074 C174.046704,78.5276074 165.544049,68.1484564 165.544049,55.1741252 C165.544049,42.4360049 174.361757,31.8994847 187.509477,31.8994847 Z M313.936726,31.8994847 C322.676221,31.8994847 329.84108,36.3812123 330.704883,45.6597202 L330.704883,45.6597202 L317.873472,45.6597202 C317.794945,43.2222233 316.061055,42.3571632 313.779043,42.3571632 C312.047038,42.3571632 310.078822,43.3007509 310.078822,45.2667681 C310.078822,52.107465 332.042994,48.2545865 332.042994,63.6664147 C332.042994,73.4952442 323.147387,78.5276074 314.251779,78.5276074 C305.119018,78.5276074 297.482366,73.6526135 296.45868,64.0593669 L296.45868,64.0593669 L309.449031,64.0593669 C309.842611,66.7330748 311.810827,68.0696147 314.408834,68.0696147 C316.378307,68.0696147 318.976,66.9689718 318.976,64.6885301 C318.976,61.5433423 315.432834,60.5997546 313.070724,59.6561669 C311.181036,59.0270037 309.291661,58.3981546 307.401973,57.6904638 C302.205958,55.8032883 297.009944,52.4222037 297.009944,46.2888834 C297.009944,37.1677448 305.512599,31.8994847 313.936726,31.8994847 Z M384.948613,31.8994847 C389.748221,31.8994847 395.103804,33.7078184 397.701497,38.0324908 L397.701497,38.0324908 L397.858552,38.0324908 L397.858552,33.3933939 L410.928687,33.3933939 L410.928687,77.0336982 L397.858552,77.0336982 L397.858552,72.3157595 L397.701497,72.3157595 C395.339387,76.7978012 389.669693,78.5276074 384.948613,78.5276074 C371.48584,78.5276074 362.982871,68.1484564 362.982871,55.1741252 C362.982871,42.4360049 371.799951,31.8994847 384.948613,31.8994847 Z M441.403681,31.8994847 C452.582871,31.8994847 462.266896,39.1334479 464.550479,50.2202896 L464.550479,50.2202896 L451.323288,50.2202896 C449.435485,46.1315141 446.049374,44.0872834 441.560736,44.0872834 C435.262822,44.0872834 431.484074,49.2767018 431.484074,55.1741252 C431.484074,61.3074454 435.498405,66.261281 441.874847,66.261281 C446.206429,66.261281 449.356957,64.2167362 451.323288,60.4423853 L451.323288,60.4423853 L464.629006,60.4423853 C462.10984,71.1362748 452.739926,78.4490798 441.717791,78.4490798 C428.650798,78.4490798 418.335411,68.1484564 418.335411,55.0955975 C418.335411,42.200108 428.415215,31.8994847 441.403681,31.8994847 Z M159.041335,18.8466258 L159.041282,54.4045175 C159.039181,59.8872417 158.953009,66.0577757 155.419956,70.5071117 C151.483524,75.3824196 145.184982,78.1343411 138.965595,78.1343411 C136.288746,78.1343411 133.533055,77.6625472 131.092731,76.7189595 C122.825973,73.7311411 119.361963,66.8116025 119.361963,58.3193129 L119.361963,58.3193129 L135.186533,58.3193129 C135.343902,61.2289178 135.895166,65.0817963 139.674228,65.0817963 C143.925399,65.0817963 144.16161,60.9141791 144.16161,57.6904638 L144.16161,18.8466258 L159.041335,18.8466258 Z M273.883249,31.8994847 C278.213261,31.8994847 282.307377,33.1574969 285.377806,36.3026847 C290.33761,41.3350479 290.101399,46.5247804 290.101399,53.2084221 L290.101399,77.0336982 L277.03252,77.0336982 L277.031991,53.6016368 C277.010401,48.8822792 276.303037,44.165811 270.340398,44.165811 C264.514591,44.165811 263.097325,48.2545865 263.097325,53.2084221 L263.097325,53.2084221 L263.097325,77.0336982 L250.028447,77.0336982 L250.028447,53.2869497 C250.028447,48.804908 249.004761,44.165811 243.493693,44.165811 C237.431676,44.165811 236.093252,48.7263804 236.093252,53.8375853 L236.093252,53.8375853 L236.093252,77.0336982 L223.024059,77.0336982 L223.024059,33.3933939 L235.227249,33.3933939 L235.227249,38.0324908 L235.384618,38.0324908 C237.904098,33.5507632 242.470321,31.8994847 247.430125,31.8994847 C253.098876,31.8994847 257.350047,34.7302479 260.026896,39.6837693 C263.176167,34.7302479 267.978601,31.8994847 273.883249,31.8994847 Z M354.24746,18.8466258 L354.24746,33.3933939 L360.545374,33.3933939 L360.545374,43.3007509 L354.24746,43.3007509 L354.24746,77.0336982 L341.177325,77.0336982 L341.177325,43.3007509 L334.722356,43.3007509 L334.722356,33.3933939 L341.177325,33.3933939 L341.177325,18.8466258 L354.24746,18.8466258 Z M484.207509,18.8466258 L484.207509,49.1981742 L484.364564,49.1981742 L496.489227,33.3933939 L512,33.3933939 L495.546896,52.5792589 L511.528834,77.0336982 L496.727951,77.0336982 L484.364564,56.0391853 L484.207509,56.0391853 L484.207509,77.0336982 L471.140515,77.0336982 L471.140515,18.8466258 L484.207509,18.8466258 Z M189.398852,44.0872834 C183.021782,44.0872834 178.612928,49.1196466 178.612928,55.3314945 C178.612928,61.385973 183.336834,66.3398086 189.477693,66.3398086 C195.854763,66.3398086 200.420987,61.4648147 200.420987,55.1741252 C200.420987,48.804908 195.775921,44.0872834 189.398852,44.0872834 Z M386.836417,44.0872834 C380.459975,44.0872834 376.049865,49.1196466 376.049865,55.3314945 C376.049865,61.385973 380.774086,66.3398086 386.914945,66.3398086 C393.291387,66.3398086 397.858552,61.4648147 397.858552,55.1741252 C397.858552,48.804908 393.212859,44.0872834 386.836417,44.0872834 Z" fill="#FFFFFF"></path>
        <path d="M48.6871166,0 C21.7652142,0 0,21.7652142 0,48.6871166 C0,75.6088933 21.7652142,97.3742331 48.6871166,97.3742331 C75.6088933,97.3742331 97.3742331,75.6088933 97.3742331,48.6871166 L97.3742331,0 L48.6871166,0 Z" fill="#F0047F"></path>
        <path d="M46.0397939,51.3344393 L46.0397939,86.8273472 C27.1494336,85.7482837 11.9436297,70.7207159 10.5838125,51.9057389 L10.5468545,51.3344393 L46.0397939,51.3344393 Z M80.6387436,51.3344393 C79.6495501,70.2248929 65.8743305,85.4305745 48.6274978,86.7903893 L48.1038135,86.8273472 L48.1038135,51.3344393 L80.6387436,51.3344393 Z M80.6814626,16.6926449 L80.6814626,49.2704196 L48.1038135,49.2704196 L48.1038135,16.6926449 L80.6814626,16.6926449 Z" fill="#FFFFFF"></path>
    </g>
</svg>

<svg preserveAspectRatio="xMidYMid" viewBox="0 0 512 98" xmlns="http://www.w3.org/2000/svg">
  <path fill="#FFF" d="M187.51 31.9c4.802 0 10.155 1.808 12.754 6.132h.157v-4.639h13.069v43.64h-13.07v-4.717h-.157c-2.362 4.482-8.03 6.212-12.755 6.212-13.462 0-21.965-10.38-21.965-23.354 0-12.738 8.818-23.275 21.965-23.275Zm126.427 0c8.74 0 15.904 4.481 16.768 13.76h-12.832c-.078-2.438-1.812-3.303-4.094-3.303-1.732 0-3.7.944-3.7 2.91 0 6.84 21.964 2.988 21.964 18.4 0 9.828-8.896 14.86-17.791 14.86-9.133 0-16.77-4.874-17.793-14.468h12.99c.394 2.674 2.362 4.01 4.96 4.01 1.97 0 4.567-1.1 4.567-3.38 0-3.146-3.543-4.09-5.905-5.033-1.89-.629-3.78-1.258-5.669-1.966-5.196-1.887-10.392-5.268-10.392-11.401 0-9.121 8.503-14.39 16.927-14.39Zm71.012 0c4.8 0 10.155 1.808 12.752 6.132h.158v-4.639h13.07v43.64h-13.07v-4.717h-.158c-2.362 4.482-8.031 6.212-12.752 6.212-13.463 0-21.966-10.38-21.966-23.354 0-12.738 8.817-23.275 21.966-23.275Zm56.455 0c11.179 0 20.863 7.233 23.146 18.32h-13.227c-1.888-4.088-5.274-6.133-9.762-6.133-6.298 0-10.077 5.19-10.077 11.087 0 6.133 4.014 11.087 10.39 11.087 4.332 0 7.483-2.044 9.45-5.819h13.305c-2.52 10.694-11.89 18.007-22.911 18.007-13.067 0-23.383-10.3-23.383-23.353 0-12.896 10.08-23.197 23.069-23.197ZM159.04 18.846v35.558c-.002 5.482-.088 11.653-3.621 16.102-3.936 4.875-10.235 7.627-16.454 7.627-2.677 0-5.433-.471-7.873-1.415-8.267-2.988-11.731-9.907-11.731-18.4h15.825c.157 2.91.708 6.763 4.487 6.763 4.251 0 4.488-4.168 4.488-7.392V18.847h14.88Zm114.842 13.052c4.33 0 8.424 1.258 11.495 4.404 4.96 5.032 4.723 10.222 4.723 16.905v23.826h-13.068l-.001-23.432c-.022-4.72-.729-9.436-6.692-9.436-5.825 0-7.243 4.089-7.243 9.042v23.826h-13.069V53.287c0-4.482-1.023-9.121-6.534-9.121-6.062 0-7.4 4.56-7.4 9.672v23.196h-13.07v-43.64h12.203v4.638h.158c2.52-4.481 7.085-6.133 12.045-6.133 5.669 0 9.92 2.831 12.597 7.785 3.15-4.954 7.952-7.785 13.856-7.785Zm80.364-13.052v14.546h6.298V43.3h-6.298v33.733h-13.07V43.3h-6.455v-9.908h6.455V18.847h13.07Zm129.96 0v30.351h.158l12.124-15.805H512L495.547 52.58l15.982 24.455h-14.801L484.365 56.04h-.157v20.995H471.14V18.847h13.067ZM189.4 44.087c-6.377 0-10.786 5.033-10.786 11.244 0 6.055 4.724 11.009 10.865 11.009 6.377 0 10.943-4.875 10.943-11.166 0-6.37-4.645-11.087-11.022-11.087Zm197.437 0c-6.376 0-10.786 5.033-10.786 11.244 0 6.055 4.724 11.009 10.865 11.009 6.376 0 10.944-4.875 10.944-11.166 0-6.37-4.646-11.087-11.023-11.087Z"/>
  <path fill="#F0047F" d="M48.687 0C21.765 0 0 21.765 0 48.687 0 75.61 21.765 97.374 48.687 97.374c26.922 0 48.687-21.765 48.687-48.687V0H48.687Z"/>
  <path fill="#FFF" d="M46.04 51.334v35.493c-18.89-1.079-34.096-16.106-35.456-34.921l-.037-.572H46.04Zm34.599 0c-.99 18.89-14.765 34.097-32.012 35.456l-.523.037V51.334h32.535Zm.042-34.641V49.27H48.104V16.693H80.68Z"/>
</svg>
